packages/icons/src/emoji/svg/comet.svg

<svg width="120" height="120" viewBox="0 0 120 120" fill="none" xmlns="http://www.w3.org/2000/svg">
<path d="M45.6094 80.1938L37.8844 96.1407L32.3813 79.2282L15 76.8282L29.2031 66.3469L26.2969 49.0969L40.4719 59.3532L50.5594 54.1594L56.1656 51.2719L54.6844 55.6969L50.6063 67.9126L63.3281 80.3438L45.6094 80.1938Z" fill="#FCC21B"/>
<path d="M78.9939 29.2126C75.7408 31.1157 72.5721 33.1689 69.4502 35.297C70.5471 35.9064 71.4377 36.9282 71.9627 38.5314C72.1221 38.9907 72.1689 39.4689 72.1689 39.9564C73.9877 38.597 75.8064 37.2376 77.6721 35.9532C80.9158 33.722 84.2252 31.5845 87.5908 29.5314C91.5564 27.122 95.5877 24.8345 99.6939 22.6689C101.963 21.4689 104.25 20.3064 106.556 19.172C107.147 18.8907 107.738 18.6001 108.328 18.3189C108.61 18.1876 108.881 18.0282 109.172 17.9157C109.528 17.7845 112.406 16.622 111.525 16.0032C111.113 15.7032 110.485 15.8626 110.025 15.9282C109.453 16.022 108.9 16.1907 108.366 16.3407C107.335 16.622 106.303 16.9314 105.281 17.2595C102.9 18.0189 100.556 18.8626 98.2314 19.7814C95.2221 20.9626 92.2689 22.2657 89.3533 23.672C85.8377 25.3876 82.3783 27.2345 78.9939 29.2126Z" fill="#40C0E7"/>
<path d="M58.631 65.9719L63.0278 52.7907L65.5966 45.1032L66.6841 41.8313C66.9372 41.0532 66.7028 40.2094 66.0934 39.675C65.4747 39.1407 64.6028 39.0469 63.8716 39.4125L63.1684 39.7688L48.8997 47.1282L41.0903 51.1594L20.5028 36.2625C19.856 35.7938 18.9653 35.7563 18.2716 36.1875C17.5872 36.6094 17.2216 37.425 17.3528 38.2219L21.581 63.2719L0.955951 78.4876C0.299701 78.9751 -0.00029856 79.8 0.205951 80.5876C0.402826 81.3844 1.05908 81.9657 1.8747 82.0782L27.0841 85.5657L35.0809 110.119C35.3341 110.888 36.0372 111.441 36.8434 111.497C37.6591 111.553 38.4278 111.103 38.7841 110.372L49.9778 87.2344L75.6747 87.4501C76.4997 87.4501 77.2309 86.9626 77.5403 86.2126C77.8497 85.4626 77.6716 84.5907 77.0997 84.0188L58.631 65.9719ZM45.6091 80.1938L37.8934 96.1407L32.381 79.2282L14.9997 76.8282L29.2028 66.3469L26.2872 49.0969L40.4716 59.3532L50.5591 54.15L56.1559 51.2625L54.6747 55.6969L50.5966 67.9126L63.3278 80.3438L45.6091 80.1938Z" fill="#F79329"/>
<path d="M38.5406 41.1656C39 41.6437 39.3937 42.15 39.9656 42.5062C40.2375 42.675 40.4718 42.7687 40.6968 42.7968C41.25 42.8718 41.6531 42.525 42.2156 42C43.3687 40.9218 44.5593 39.8718 45.7593 38.85C47.6062 37.275 49.4906 35.7562 51.4125 34.275C53.9531 32.3156 56.5406 30.4312 59.1843 28.6218C62.4281 26.3812 65.7375 24.2437 69.1031 22.2C73.0687 19.7906 77.1 17.5125 81.1968 15.3375C83.475 14.1468 85.7625 12.975 88.0687 11.85C88.65 11.5593 89.2406 11.2781 89.8312 10.9968C90.1125 10.8562 90.3843 10.7062 90.675 10.5937C91.0312 10.4531 93.9 9.29997 93.0281 8.68122C92.6156 8.38122 91.9874 8.5406 91.5281 8.60622C90.9562 8.69997 90.4125 8.85935 89.8593 9.01872C88.8187 9.29997 87.7968 9.60935 86.775 9.93747C84.4031 10.6875 82.05 11.5406 79.725 12.45C76.7156 13.6406 73.7625 14.9437 70.8468 16.3406C67.3218 18.0468 63.8625 19.9031 60.4781 21.8718C56.5312 24.1875 52.6781 26.6718 48.9375 29.3062C45.6843 31.5937 42.5156 33.9937 39.4312 36.5062C38.8781 36.9562 38.325 37.4156 37.7625 37.875C37.2562 38.2969 36.5906 38.775 37.0875 39.4875C37.5281 40.0968 38.025 40.6312 38.5406 41.1656ZM119.681 29.775C119.25 29.4937 118.631 29.6812 118.181 29.775C117.619 29.8875 117.084 30.0843 116.541 30.2718C115.519 30.6094 114.506 30.9656 113.503 31.3406C111.169 32.2125 108.862 33.1781 106.584 34.2094C103.641 35.5406 100.753 36.9937 97.9218 38.5406C94.4812 40.4156 91.1156 42.4406 87.8343 44.5781C84.0093 47.0812 80.2875 49.7625 76.6781 52.575C73.5477 55.023 70.5021 57.5776 67.5468 60.2343C67.0031 60.7125 66.4781 61.2 65.9437 61.6875C65.4562 62.1375 64.8187 62.6437 65.3531 63.3281C65.8031 63.9094 66.3375 64.425 66.8718 64.9218C67.3593 65.3812 67.7625 65.8593 68.3625 66.1875C68.6343 66.3468 68.8781 66.4218 69.0937 66.45C69.6468 66.4968 70.0406 66.1218 70.575 65.5781C71.6718 64.4437 72.8062 63.3375 73.9593 62.25C75.7218 60.5812 77.5406 58.9687 79.3781 57.4031C81.825 55.3218 84.3187 53.3156 86.8593 51.3656C89.9906 48.975 93.1968 46.6687 96.45 44.4656C100.284 41.8593 104.203 39.375 108.197 37.0125C110.4 35.7 112.631 34.4343 114.881 33.1875C115.453 32.8781 116.034 32.5593 116.606 32.25C116.869 32.1 117.15 31.9312 117.422 31.8093C117.769 31.65 120.591 30.3562 119.681 29.775Z" fill="#40C0E7"/>
</svg>

<svg xmlns="http://www.w3.org/2000/svg" fill="none" aria-hidden="true" data-slot="icon" viewBox="0 0 120 120"><path fill="#FCC21B" d="M45.61 80.194 37.883 96.14 32.38 79.227 15 76.828l14.203-10.481-2.906-17.25 14.175 10.256 10.087-5.194 5.607-2.887-1.482 4.425-4.078 12.216 12.722 12.43z"/><path fill="#40C0E7" d="M78.994 29.213c-3.253 1.903-6.422 3.956-9.544 6.084 1.097.61 1.988 1.631 2.513 3.234.16.46.206.938.206 1.425 1.819-1.359 3.637-2.718 5.503-4.003a216 216 0 0 1 9.919-6.422 229 229 0 0 1 12.103-6.862q3.403-1.798 6.862-3.497c.591-.281 1.182-.572 1.772-.853.282-.131.553-.29.844-.403.356-.131 3.234-1.294 2.353-1.913-.412-.3-1.04-.14-1.5-.075-.572.094-1.125.263-1.659.413a73 73 0 0 0-3.085.918c-2.381.76-4.725 1.604-7.05 2.522a129 129 0 0 0-8.878 3.891 157 157 0 0 0-10.36 5.54"/><path fill="#F79329" d="m58.631 65.972 4.397-13.181 2.569-7.688 1.087-3.272a2.03 2.03 0 0 0-.59-2.156 2.01 2.01 0 0 0-2.222-.262l-.704.356-14.268 7.36-7.81 4.03-20.587-14.896a2.01 2.01 0 0 0-2.231-.075 2.02 2.02 0 0 0-.92 2.034l4.229 25.05L.956 78.488a1.99 1.99 0 0 0-.75 2.1 1.98 1.98 0 0 0 1.669 1.49l25.21 3.488 7.996 24.553a2.02 2.02 0 0 0 1.762 1.378 2.01 2.01 0 0 0 1.941-1.125l11.194-23.138 25.697.216c.825 0 1.556-.487 1.865-1.237.31-.75.132-1.622-.44-2.194zM45.609 80.194 37.893 96.14l-5.512-16.913L15 76.828l14.203-10.481-2.916-17.25 14.185 10.256 10.087-5.203 5.597-2.887-1.481 4.434-4.078 12.216 12.73 12.43z"/><path fill="#40C0E7" d="M38.54 41.166c.46.478.854.984 1.426 1.34.271.169.506.263.73.29.554.076.957-.271 1.52-.796a102 102 0 0 1 3.543-3.15 147 147 0 0 1 5.654-4.575q3.808-2.94 7.771-5.653a201 201 0 0 1 9.92-6.422 240 240 0 0 1 12.093-6.862 278 278 0 0 1 6.872-3.488c.581-.29 1.172-.572 1.762-.853.281-.14.553-.29.844-.403.356-.14 3.225-1.294 2.353-1.913-.412-.3-1.04-.14-1.5-.075-.572.094-1.116.253-1.669.413-1.04.281-2.062.59-3.084.918-2.372.75-4.725 1.604-7.05 2.513a138 138 0 0 0-8.878 3.89 155 155 0 0 0-10.369 5.532c-3.947 2.316-7.8 4.8-11.54 7.434a169 169 0 0 0-9.507 7.2c-.553.45-1.106.91-1.668 1.369-.507.422-1.172.9-.675 1.612.44.61.937 1.144 1.453 1.679m81.141-11.391c-.431-.281-1.05-.094-1.5 0-.562.113-1.097.31-1.64.497a83 83 0 0 0-3.038 1.069 111 111 0 0 0-6.919 2.868 129 129 0 0 0-8.662 4.332 151 151 0 0 0-10.088 6.037 167 167 0 0 0-11.156 7.997 174 174 0 0 0-9.131 7.66c-.544.477-1.069.965-1.603 1.453-.488.45-1.125.956-.59 1.64.45.581.984 1.097 1.518 1.594.487.46.89.937 1.49 1.266.272.159.516.234.732.262.553.047.947-.328 1.481-.872a103 103 0 0 1 3.384-3.328 139 139 0 0 1 5.42-4.847 191 191 0 0 1 7.48-6.037 208 208 0 0 1 9.591-6.9 221 221 0 0 1 11.747-7.453 246 246 0 0 1 6.684-3.825c.572-.31 1.153-.629 1.725-.938.263-.15.544-.319.816-.44.347-.16 3.169-1.454 2.259-2.035"/></svg>
